X:1
T:Bal de Rhuys
R:
C:Trad.
S:
A:Bretagne
Z:Roger Ngaret (94-95)
E:12
M:6/8
L:1/16
K:C
"G"d2z2e2 d2z2B2 | G2z2A2 B2A2G2 | d2z2e2 d2z2B2 |
"D"c2B2A2 "G"G6 |: G2A2B2 "Am"A6 | "G"G2A2B2 "C"c6 | 
"F"A2B2c2 "D"d2e2d2 |1 "Am"c2B2A2 "Em"B4 G2 :|2 "Am"c2B2A2 "G"G6 |]
